icons/transfer.svg

<svg width="24" height="24" viewBox="0 0 24 24" fill="none" xmlns="http://www.w3.org/2000/svg">
<path d="M12.5 14.5V15.5C12.5 15.9045 12.7436 16.2691 13.1173 16.4239C13.491 16.5787 13.9211 16.4931 14.2071 16.2071L16.2071 14.2071C16.3946 14.0196 16.5 13.7652 16.5 13.5C16.5 13.2348 16.3946 12.9804 16.2071 12.7929L14.2071 10.7929C13.9211 10.5069 13.491 10.4213 13.1173 10.5761C12.7436 10.7309 12.5 11.0955 12.5 11.5V12.5H10C9.44772 12.5 9 12.9477 9 13.5C9 14.0523 9.44772 14.5 10 14.5H12.5Z" fill="#9AA1B4"/>
<path fill-rule="evenodd" clip-rule="evenodd" d="M2 7C2 4.79086 3.79086 3 6 3H9.5C9.73871 3 9.96955 3.08539 10.1508 3.24074L13.3699 6H18C20.2091 6 22 7.79086 22 10V17C22 19.2091 20.2091 21 18 21H6C3.79086 21 2 19.2091 2 17V7ZM4 7C4 5.89543 4.89543 5 6 5H9.13008L12.3492 7.75926C12.5305 7.91461 12.7613 8 13 8H18C19.1046 8 20 8.89543 20 10V17C20 18.1046 19.1046 19 18 19H6C4.89543 19 4 18.1046 4 17V9H8C8.55228 9 9 8.55228 9 8C9 7.44772 8.55228 7 8 7H4Z" fill="#9AA1B4"/>
</svg>

<?xml version="1.0" encoding="utf-8"?>
<!-- Generator: Adobe Illustrator 22.1.0, SVG Export Plug-In . SVG Version: 6.00 Build 0)  -->
<svg version="1.1" id="Layer_1" xmlns="http://www.w3.org/2000/svg" xmlns:xlink="http://www.w3.org/1999/xlink" x="0px" y="0px"
	 viewBox="0 0 24 24" style="enable-background:new 0 0 24 24;" xml:space="preserve">
<style type="text/css">
	.st0{fill:#9AA1B4;}
</style>
<g>
	<path class="st0" d="M18,6h-4.6l-3.2-2.8C10,3.1,9.7,3,9.5,3H6C3.8,3,2,4.8,2,7v10c0,2.2,1.8,4,4,4h12c2.2,0,4-1.8,4-4v-7
		C22,7.8,20.2,6,18,6z M20,17c0,1.1-0.9,2-2,2H6c-1.1,0-2-0.9-2-2V9h4c0.6,0,1-0.4,1-1S8.6,7,8,7H4c0-1.1,0.9-2,2-2h3.1l3.2,2.8
		C12.5,7.9,12.8,8,13,8h5c1.1,0,2,0.9,2,2V17z"/>
	<path class="st0" d="M14.2,10.8c-0.3-0.3-0.7-0.4-1.1-0.2s-0.6,0.5-0.6,0.9v1H10c-0.6,0-1,0.4-1,1s0.4,1,1,1h2.5v1
		c0,0.4,0.2,0.8,0.6,0.9s0.8,0.1,1.1-0.2l2-2c0.2-0.2,0.3-0.4,0.3-0.7s-0.1-0.5-0.3-0.7L14.2,10.8z"/>
</g>
</svg>
